X:24
T:Cercle de l'ours
R:Cercle
N:tagafolk.abc
O:France
Z:<anamnese@laposte.net>
M:C
L:1/8
Q:1/4=114
K:C
A/B/c/d/ eA A/B/c/d/ eA | ABc2 Bc dB | cd eA eA eA | AB c2 B2 A2 ::
A>c Ac BAG2 | A>c Ac dddc/d/ | ee dd cc BB |1 AedB A2 A2 :|2 [M:3/4] AedB A2 |]
%%vskip 0.5cm
%%sep
%%text Bourres :
